X:1
T:Title
%%score { 1 | 2 }
L:1/8
M:6/8
K:F
V:1 treble nm="Grand Piano"
V:2 bass 
V:1
 z3 z2[Q:1/4=100] F | FFG .A2 A | c2 B A2 [B,EG] | [A,DF]2 [A,DF] [B,DB]2 [DA] | %4
 [G,EG]3- [G,EG]2 [CEG] | [CFA]2 [CFA] [^CGA]2 [CGA] | [FA]2 [FA] [Fd]2 [Fc] | c2 =B A2 B | %8
[M:5/8] [Ec]-[Ec]- [Ec]3 |[M:4/4] [Ec] [Ec]3 C .C3 | c c3 F F2 c- | c d2 c- c A2 F- | %12
 F [EG]3- [EG]3 C- | C F3 F A2 A- | A c2 B- B A2 [B,EG]- | %15
 [B,EG] [A,DF]2 [A,DF]- [A,DF] [B,DB]2 [B,EG]- |[M:7/8] [B,EG][A,F]-[A,F]- [A,F]- [A,F]3 |] %17
V:2
 z3 z2 [F,A,C] | [F,A,C][F,A,C][F,B,C] .[F,CF]2 [F,CF] | [F,DF]2 [F,DF] [F,CF]2 C, | %3
 D,2 D, B,,2 B,, | C,3- C,2 C, | F,2 F, E,2 E, | [D,D]2 [D,D] [D,D]2 [D,D] | %7
 [G,DF]2 [G,DF] [G,DF]2 [G,DF] |[M:5/8][K:bass] [C,C]-[C,C]- [C,C]3 | %9
[M:4/4] [C,G,] [C,B,]3 [C,B,] .[C,B,]3 | [C,B,C] [F,A,C]3 [F,A,C] [F,A,C]2[K:treble] [F,A,F]- | %11
 [F,A,F] [B,F]2 [A,CF]- [A,CF][K:bass] [F,C]2 [D,A,D]- | [D,A,D] [C,C]3- [C,C]3 [C,B,]- | %13
 [C,B,] [F,A,C]3 [F,A,C] [F,CF]2 [F,CF]- | [F,CF] [F,DF]2 [F,DF]- [F,DF] [F,CF]2 C,- | %15
 C, D,2 D,- D, B,,2 C,- |[M:7/8] C,F,-F,- F,- F,3 |] %17

